X: 19321
T: Jack Gilder's Beard
R: barndance
M: 4/4
K: Dmajor
|:d>e|(3fed A>F D>FB>A|(3GAG F>G E2 c>d|(3edc B>A G>EC>E|DEFG A2 d>e|
(3fed A>F D>FB>A|(3GAG F>G E2 c>d|(3edc B>A G>EC>E|D2 d2 D2:|
|:(3fed|(3ABA F>A f2 (3gfe|B>AG>B g2 e>d|c>aB>g A>fG>e|d>e (3dcB A2 (3fed|
(3ABA F>A f2 (3gfe|B>AG>B g3^g|a>A^G>A B>=ge>c|d2 f2 d2:|

